assets/svg/networks/wallet_optimism.svg

<svg width="36" height="36" viewBox="0 0 36 36" fill="none" xmlns="http://www.w3.org/2000/svg">
<g clip-path="url(#clip0_52314_201699)">
<rect width="36" height="36" rx="10" fill="#FE0420"/>
<path fill-rule="evenodd" clip-rule="evenodd" d="M9.073 22.223C9.79767 22.741 10.7283 23 11.865 23C13.2383 23 14.335 22.69 15.155 22.07C15.9757 21.4393 16.553 20.4903 16.887 19.223C17.087 18.4443 17.259 17.643 17.403 16.819C17.4497 16.5243 17.4733 16.2787 17.474 16.082C17.474 15.4353 17.3073 14.8803 16.974 14.417C16.6296 13.9373 16.1513 13.57 15.599 13.361C15.017 13.121 14.3587 13.0007 13.624 13C10.9247 13 9.25067 14.2733 8.602 16.82C8.37267 17.7553 8.196 18.5563 8.072 19.223C8.02922 19.4705 8.00515 19.7209 8 19.972C8 20.9447 8.35767 21.6957 9.073 22.223ZM14.24 19.138C13.966 20.202 13.21 20.894 12.065 20.894C10.931 20.894 10.545 20.128 10.748 19.138C10.92 18.24 11.092 17.4807 11.264 16.86C11.559 15.712 12.254 15.104 13.438 15.104C14.568 15.104 14.936 15.86 14.741 16.86C14.6009 17.625 14.4338 18.3848 14.24 19.138ZM18.576 22.9C18.6058 22.9328 18.6425 22.9587 18.6835 22.9756C18.7245 22.9925 18.7687 23.0002 18.813 22.998H20.707C20.8037 22.9967 20.8969 22.9621 20.971 22.9C21.0535 22.8371 21.1084 22.7446 21.124 22.642L21.722 19.842H23.648C24.864 19.842 25.814 19.252 26.51 18.728C27.2167 18.204 27.6853 17.394 27.916 16.298C27.9727 16.0413 28.0007 15.794 28 15.556C28 14.728 27.6847 14.0947 27.054 13.656C26.432 13.2187 25.606 13 24.576 13H20.874C20.7764 13.0014 20.6824 13.0368 20.608 13.1C20.5276 13.1642 20.4735 13.2556 20.456 13.357L18.534 22.643C18.5236 22.6866 18.522 22.7319 18.5292 22.7762C18.5364 22.8205 18.5523 22.8619 18.576 22.9ZM25.343 16.271C25.168 17.037 24.501 17.737 23.718 17.737H22.118L22.669 15.105H24.339C24.908 15.105 25.383 15.218 25.383 15.843C25.383 15.9657 25.3697 16.1083 25.343 16.271Z" fill="white"/>
</g>
<defs>
<clipPath id="clip0_52314_201699">
<rect width="36" height="36" fill="white"/>
</clipPath>
</defs>
</svg>

<svg xmlns="http://www.w3.org/2000/svg" width="36" height="36" fill="none"><g clip-path="url(#a)"><rect width="36" height="36" fill="#FE0420" rx="10"/><path fill="#fff" fill-rule="evenodd" d="M9.073 22.223Q10.16 23 11.865 23q2.06 0 3.29-.93 1.23-.946 1.732-2.847.3-1.168.516-2.404.07-.442.071-.737 0-.97-.5-1.665a3 3 0 0 0-1.375-1.056q-.873-.36-1.975-.361-4.05 0-5.022 3.82-.344 1.403-.53 2.403a5 5 0 0 0-.072.749q0 1.46 1.073 2.251m5.167-3.085c-.274 1.064-1.03 1.756-2.175 1.756-1.134 0-1.52-.766-1.317-1.756q.258-1.347.516-2.278c.295-1.148.99-1.756 2.174-1.756 1.13 0 1.498.756 1.303 1.756q-.21 1.148-.501 2.278m4.336 3.762a.3.3 0 0 0 .237.098h1.894a.42.42 0 0 0 .264-.098.4.4 0 0 0 .153-.258l.598-2.8h1.926c1.216 0 2.166-.59 2.862-1.114q1.06-.786 1.406-2.43.085-.385.084-.742 0-1.242-.946-1.9Q26.121 13 24.576 13h-3.702a.42.42 0 0 0-.266.1.42.42 0 0 0-.152.257l-1.922 9.286a.34.34 0 0 0 .042.257m6.767-6.629c-.175.766-.842 1.466-1.625 1.466h-1.6l.551-2.632h1.67c.569 0 1.044.113 1.044.738q0 .184-.04.428" clip-rule="evenodd"/></g><defs><clipPath id="a"><path fill="#fff" d="M0 0h36v36H0z"/></clipPath></defs></svg>
